X:1
T:Title
%%score { ( 1 4 5 ) | ( 2 3 ) }
L:1/8
M:4/4
K:F
V:1 treble nm="Grand Piano"
V:4 treble 
V:5 treble 
V:2 bass 
V:3 bass 
V:1
 z4 z2[Q:1/4=100] CF | AA_A=A dcAF | D6 z2 | FEED z cG_A | .c2 z2 z4 | z4 .d2 z2 | [DGB]6 DD | %7
 AGGD A2 G2 | [CEc]6 CC | c4 c4 | [Ec]6 CC | CCDD EEFF |[M:9/8] E3- E- [Ec]2- [Ec-]/c/ z z | %13
[M:3/4] A6 | B6 | B4 z2 | [Ac]6 | ^c->[Bc-] [Ac-]2 [Gc]2 | d6 | f6 |[M:7/8] e2 z z z z2 | %21
[M:3/4] C>C F2 D2 | E2 [Ec]4 | C>D E2 [EB]2 | A6 | A>G F2 c2 | [Dd]4 z2 | A2 G2 C2 | c4 F2 | %29
[M:29/32] A/4-A/4-A/-<A/[K:bass][K:treble] z/4 z/4 z/4 z/4 z/4 z/4 z/4 z/4 z/4 z/4 z/4 z/4 z/4 z/4 z/4 z/4 z/4 z/4 z/ E3/4- | %30
[M:3/4] E3/4 z/4 z z2 z2 |[M:9/8] z9 |] %32
V:2
 z8 | C2 z2 z4 | [B,,F,]2 [A,,^F,]2 [G,,G,]2 z2 | [C,B,]3- [C,F,B,] C,2- [C,B,E]2 | [F,CF]6 z2 | %5
 C2 z C- C4 | G,2 D,2 G,2 z2 | [G,=B,F]8 | C,6 C,C, | C,-[C,-G,][C,-A,][C,A,] z B,A,A, | %10
 [C,G,]6 C,C, | C,C,[C,=B,][C,B,] [C,_B,C][C,B,C][C,A,C][C,A,C] |[M:9/8] [C,B,]6- [C,B,] z z | %13
[M:3/4] C2 z2 z2 | [C,G,]6 | [E,C]2 z2 z2 | [F,C]6 | E,4 z2 | A,2- [F,A,]4 | G2 z2 z2 | %20
[M:7/8][K:bass] [C,B,]-[C,B,]-[C,B,]- [C,B,]- [C,B,]3 |[M:3/4] [F,A,]>[F,A,] [F,A,]2 [F,A,]2 | %22
 [C,G,C]2 [C,B,]4 | [C,E,B,]>[C,F,B,] [C,G,B,]2 [C,C]2 | [F,CF]6 | %25
 [F,C_E]>[F,B,E] [F,A,E]2 [F,A,E]2 | B,4[K:treble] z2 | [CF]2 [B,CE]2 B,2 | %28
 [A,CF]4[K:bass] [A,C]2 | %29
[M:29/32] [B,D]/4-[B,D]/4-[B,D]/4-[B,D]/4-[B,D]/-<[B,D]/[C,A,C]/4-[C,A,C]/4-[C,A,C]/4-[C,A,C]/4-[C,A,C]/-<[C,A,C]/[C,C]/-[C,B,C]/4-[C,B,C]/4-[C,B,C]/4-[C,B,C]/4-[C,B,C]/4-[C,B,C]/4-[C,B,C]/-<[C,B,C]/ z/4 | %30
[M:3/4] [F,A,C]6- |[M:9/8] [F,A,C]8- [F,A,C] |] %32
V:3
 x8 | [F,F]2- [F,-=B,F-][F,-CF-] [F,A,F]4 | x8 | G,4 E,2 z2 | x8 | [F,F]2- [F,=B,F]2 D,4 | x8 | %7
 x8 | x8 | .G,2 z2 C,4 | x8 | x8 |[M:9/8] x9 |[M:3/4] [F,A,]6 | x6 | C,->[C,-F,] [C,G,]2 [C,C]2 | %16
 x6 | A,4- [A,,A,]2 | D,2 z2 z2 | [G,=B,]6 |[M:7/8][K:bass] x7 |[M:3/4] x6 | x6 | x6 | x6 | x6 | %26
 B,,2 z2[K:treble] [G,DE]2 | x6 | x4[K:bass] x2 | %29
[M:29/32] z/4 z/4 z/4 z/4 z/4 z/4 z/4 z/4 z/4 z/4 z/4 z/4 z/4 z/4 z/ G,/ z/4 z/4 z/4 z/4 z/4 z/4 z/4 z/4 z/4 z/ | %30
[M:3/4] x6 |[M:9/8] x9 |] %32
V:4
 x8 | x8 | z2 C2 B,2 DD | z4 C2 z2 | A-[A-f][A-e][A-f] [Ac]2 CF | AA_A=A ^F-[F-_e][F-d][FA] | x8 | %7
 x8 | x8 | EEFF [B,G]GFF | x8 | x8 |[M:9/8] .G6 z3 |[M:3/4] z z/ D/ F2 D2 | E2 c4 | %15
 z z/ D/ E2 [Bd]2 | x6 | A2 z2 z2 | F2 A4 | z z/ A/ G2 D2 |[M:7/8] G2- [G-d]2 [Gc]2- [Gc-]/c/ | %21
[M:3/4] x6 | x6 | x6 | x6 | x6 | z2 F,2 B2 | x6 | x6 | %29
[M:29/32] z/4 z/4 z/4 z/4[K:bass] z/[K:treble] G/F/4-F/4-F/4-F/4-F/-<F/E/G/4-G/4-G/-<G/ z/4 z/4 z/4 z/ | %30
[M:3/4] F6- |[M:9/8] F8- F |] %32
V:5
 x8 | x8 | x8 | x8 | x8 | x8 | x8 | x8 | x8 | x8 | x8 | x8 |[M:9/8] x9 |[M:3/4] x6 | x6 | x6 | x6 | %17
 x6 | x6 | x6 |[M:7/8] x7 |[M:3/4] x6 | x6 | x6 | x6 | x6 | x6 | x6 | x6 | %29
[M:29/32] z/4 z/4 z/[K:bass] B,,/-<B,,/[K:treble] z/4 z/4 z/4 z/4 z/4 z/4 z/4 z/4 z/4 z/4 z/4 z/4 z/4 z/4 z/4 z/4 z/4 z/4 z/4 z/ | %30
[M:3/4] x6 |[M:9/8] x9 |] %32

